X:22
T:Dashing White Sargent. GS.022
M:2/4
L:1/16
Q:1/4=100
S:George Spencer m/s, Leeds,1831
R:.Scots Measure
O:England
A:Leeds
N:There is a very similar version in the Ironbridge Hornpipe (John Moore
N:of Shropshire MS), which lacks the F# and C#, has alternative title
N:â€™Highland Reelâ€™
H:1831
Z:vmp.Cherri Graebe
K:F major
AG | FEFG FGAB | c=Bcd c2ag | f2d2c2A2 | d2G2 G2AG |!
FEFG FGAB | c=Bcd c2a2 | g2f2e2d2 | c4c4 ||!
c=Bcd edeg | g^fge â€œ^crsâ€c2c2 | d^cde fefg | agaf d2d2 |!
e4 f4 | g4 a4 | b2a2 agfe | gfed cBAB ||!
c2f2 fefg | f2c2 c4 | d2g2 g^fga | b2d2d4 |!
c2f2 fefg | a2f2 fefg | a4g4 | f4f2 |]

